X:4
T:No.124 Seamus O'Beirn's Highland
M:4/4
L:1/8
C:highland
K:A
d>B|A<F d>F E<A, E>G|F>A d>D c>D B>D|A<F d>F E>A, E>G|
[1F>A (3GFE D>d c>B:|[2F>A (3Bcd A2 A>f||
e>c a>c (3efe e>f|e>c a>c f>e (3fga|
e>c a>c (3efe c>e|d>e c>d B>c d>f|
e>c a>c (3efe e>f|e>c a>c f>e f>g|
"@1"a>f e>c a>f e>c|(3ded (3cdc B>d c>B||
"@2"(3aba (3gag (3fgf (3efe|(3ded (3cdc B>d c>B||
